X:1
T:Title
%%score { ( 1 4 ) | ( 2 3 ) }
L:1/8
M:4/4
K:Ab
V:1 treble nm="Grand Piano"
V:4 treble 
V:2 bass 
V:3 bass 
V:1
 z4 z2 z[Q:1/4=100] E | [CA]2 [DA]2 [CA]3 E | B2 B2 B3 c | B3 A G2 [A,=DF]2 | [G,E]6- [G,E]>E | %5
 F>F F>F G>G G>G | A>A A>A B>B B>B | c3 [CFB] [CEA]2 [B,DG]2 | %8
[M:11/16] [A,CA]/-[A,CA]/-[A,CA]/-[A,CA]/-[A,CA]/-[A,CA]-<[A,CA] z |[M:5/16] c<B[CA]/ | %10
[M:4/4] [CE]2 [CF]2 [CG]2 [CA]2 | .[DA]2 .[DG]2 z z/ d/ c>[DB] | E2 G2 B2 _c2 | %13
[M:11/16] c/-c/-c/-c/-c/-c/-c-<c[K:bass] z/ |[M:5/16][K:treble] c<_c[E=c]/ | %15
[M:4/4] [=Ed]2 [Ec]2 G2 B2 | .B2 .A2 z z/ B/ =A>B | [=Dc]2 [DB]2 [CF]2 [DB]2 | %18
[M:11/16] B/-B/-B/-B/-B/-B/-B/-B-<B |[M:5/16] c<B[CA]/ |[M:4/4] [CE]2 [CF]2 [CG]2 [CA]2 | %21
 [DA]2 [DG]2 z z/ d/ c>[DB] | E2 G2 B2 E2 | %23
[M:11/16] [=Ec]/-[Ec]/-[Ec]/-[Ec]/-[Ec]/-[Ec]/-[Ec]-<[Ec] z/ |[M:5/16] z/ z/ z [Bc]/ | %25
[M:4/4] [=Af]2 [Fc]2 [Fd]2 [Fe]2 | [_Ge]2 [Fd]2 z z/ F/ d>[B,FB] | %27
 [B,EG]2 [G,E]2 [A,=DF]2 [B,_DG]2 |[M:7/8] A-A-A- A3 z |] %29
V:2
 z4 z2 z E, | [A,,E,]2 [A,,F,]2 [A,,E,]3 [C,A,] | [E,G,E]2 [F,A,=D]2 [G,_DE]3 [_G,=A,E] | %3
 [G,B,E]3 [A,CF][K:bass] [B,E]2 B,,2 | E,>E, E,>E, E,>E, E,>[E,G,] | %5
 [A,=D]>[A,D] [A,D]>[A,D] [B,_D]>[B,D] [B,D]>[B,D] | %6
 [F,A,C]>[F,A,C] [F,A,C]>[F,A,C] [G,DE]>[G,DE] [G,DE]>[G,DE] | [A,CE]3 D, E,2 E,2 | %8
[M:11/16] A,,/-A,,/-A,,/-A,,/-A,,/-A,,-<A,, z |[M:5/16] E<D[A,,E,]/ | %10
[M:4/4] [A,,A,]2 [A,,E,]2 [A,,E,]2 [A,,E,]2 | %11
 .[B,,E,]2 .[B,,E,]2 z z/[K:treble] F/ E>[K:bass][B,,F,] | [E,G,D]2 [E,D]2 [E,G,D]2 [E,G,D]2 | %13
[M:11/16][K:treble] C/-C/-C/-C/-C/-C/-C-<C z/ |[M:5/16][K:bass] E<=D[A,,A,]/ | %15
[M:4/4] [C,B,]2 [C,B,]2 [=E,B,C]2 [C,G,C]2 | .[F,G,C]2 .[F,C]2 z z/ =D/ D>[F,D] | %17
 [B,,A,]2 [B,,A,]2 [=D,A,]2 [B,,A,]2 |[M:11/16] D/-D/-D/-D/-D/-D/-D/-D-<D | %19
[M:5/16] [E,E]<[E,D][G,,E,]/ |[M:4/4] [A,,A,]2 [A,,E,]2 [A,,E,]2 [A,,E,]2 | %21
 [B,,E,]2 [B,,E,]2 z z/[K:treble] F/ E>[K:bass][B,,F,] | [E,G,D]2 [E,B,D]2 [E,G,D]2 [D,G,]2 | %23
[M:11/16] G,-<G,G,/-G,/-G,-<G, z/ |[M:5/16][K:treble] c<_c[K:bass][=E,G,]/ | %25
[M:4/4] [F,C]2 [E,=A,]2 [D,A,]2 [C,A,]2 | [B,,C]2 [B,,B,]2 z z/[K:treble] D/ F>[K:bass]D, | %27
 E,2 E,2 E,2 E,2 |[M:7/8] z z/ E,/C- C3 z |] %29
V:3
 x8 | x8 | x8 | x4[K:bass] x4 | x8 | E,4 E,4 | x8 | x8 |[M:11/16] x11/2 |[M:5/16] x5/2 | %10
[M:4/4] x8 | x11/2[K:treble] x2[K:bass] x/ | x8 |[M:11/16][K:treble] A,/-A,/-A,/-A,/-A,-<A, z/ z | %14
[M:5/16][K:bass] x5/2 |[M:4/4] x8 | x8 | x8 |[M:11/16] [E,A,]-<[E,-A,]E,-<E, z/ z |[M:5/16] x5/2 | %20
[M:4/4] x8 | x11/2[K:treble] x2[K:bass] x/ | x8 |[M:11/16] C,3/2.=E, z E,<.C, | %24
[M:5/16][K:treble] x2[K:bass] x/ |[M:4/4] x8 | x11/2[K:treble] x2[K:bass] x/ | x8 | %28
[M:7/8] A,,-A,,-A,,- A,,3 z |] %29
V:4
 x8 | x8 | x8 | x8 | x8 | x8 | x8 | x8 |[M:11/16] x11/2 |[M:5/16] x5/2 |[M:4/4] x8 | x8 | x8 | %13
[M:11/16] z/ z A,,<C,E,<[K:bass].A, |[M:5/16][K:treble] x5/2 |[M:4/4] x8 | x8 | x8 | %18
[M:11/16] z/ z/ z G,-<G,F,3/2 |[M:5/16] x5/2 |[M:4/4] x8 | x8 | x8 |[M:11/16] x11/2 | %24
[M:5/16] x5/2 |[M:4/4] x8 | x8 | x8 |[M:7/8] [A,C]2 z z/ B,/ A,2 z |] %29

